symbolic/22x22/apps/burp.svg

<svg xmlns="http://www.w3.org/2000/svg" width="22" height="22" version="1">
 <path style="opacity:0.2" d="m 10.985351,1.4999789 a 0.90918178,0.90487043 0 0 0 -0.166015,0.016602 L 1.7353516,3.2782991 A 0.90918178,0.90487043 0 0 0 1.0000001,4.166971 v 13.680664 a 0.90918178,0.90487043 0 0 0 0.7373047,0.888672 l 9.0830082,1.74707 A 0.90918178,0.90487043 0 0 0 11,20.499979 c 0.05541,-5e-4 0.110649,-0.0061 0.165039,-0.0166 l 9.097656,-1.747072 C 20.690734,18.654293 21.000057,18.281467 21,17.847635 V 4.166971 C 21.000237,3.733743 20.69191,3.3611297 20.264648,3.2782991 L 11.166992,1.5165804 C 11.11193,1.5062621 11.056029,1.5010315 11,1.5009554 a 0.90918178,0.90487043 0 0 0 -0.01465,-9.75e-4 z"/>
 <path style="fill:#ff6633" d="M 11,1.0009766 V 20 c 0.05541,-5e-4 0.110649,-0.0061 0.165039,-0.0166 l 9.097656,-1.747072 C 20.690734,18.154314 21.000057,17.781487 21,17.347656 V 3.666992 C 21.000237,3.2337641 20.69191,2.8611509 20.264648,2.7783203 L 11.166992,1.0166016 C 11.11193,1.0062833 11.056029,1.0010527 11,1.0009766 Z"/>
 <path style="opacity:0.2;fill:none;stroke:#000000" d="M 16.5,4 V 6.4999999 L 13.65,9.9999998 H 16.5 V 12 H 19 l -2.5,3.5 v 2"/>
 <path style="fill:none;stroke:#fdfdfd" d="M 16.5,3.9999998 V 5.9999999 L 13.65,9.4999998 H 16.5 V 11.5 H 19 L 16.5,15 v 2"/>
 <path style="fill:#404041" d="M 10.985351,1 A 0.90918178,0.90487043 0 0 0 10.819336,1.016601 L 1.7353516,2.7783203 A 0.90918178,0.90487043 0 0 0 1.0000001,3.666992 v 13.680664 a 0.90918178,0.90487043 0 0 0 0.7373047,0.888672 l 9.0830082,1.74707 A 0.90918178,0.90487043 0 0 0 11,20 V 1.0009766 A 0.90918178,0.90487043 0 0 0 10.985351,1 Z"/>
 <path style="opacity:0.2;fill:#ffffff" d="m 11,1.0009766 v 0.5 c 0.05603,7.61e-5 0.11193,0.00531 0.166992,0.015625 l 9.097656,1.7617187 C 20.69191,3.3611509 21.000237,3.733764 21,4.166992 v -0.5 C 21.000237,3.2337643 20.69191,2.8611509 20.264648,2.7783203 L 11.166992,1.0166016 C 11.11193,1.0062833 11.056029,1.0010527 11,1.0009766 Z"/>
 <path style="opacity:0.1;fill:#ffffff" d="M 10.985351,1 A 0.90918178,0.90487043 0 0 0 10.819336,1.016601 L 1.7353516,2.7783203 A 0.90918178,0.90487043 0 0 0 1.0000001,3.666992 v 0.5 A 0.90918178,0.90487043 0 0 1 1.7353516,3.2783203 L 10.819336,1.5166016 A 0.90918178,0.90487043 0 0 1 10.985351,1.5 0.90918178,0.90487043 0 0 1 11,1.5009766 v -0.5 A 0.90918178,0.90487043 0 0 0 10.985351,1 Z"/>
</svg>

<svg xmlns="http://www.w3.org/2000/svg" width="22" height="22" version="1"><path style="opacity:.2" d="M10.985 1.5a.91.905 0 0 0-.166.017L1.735 3.278A.91.905 0 0 0 1 4.167v13.68a.91.905 0 0 0 .737.89l9.083 1.746a.91.905 0 0 0 .18.017c.055 0 .11-.006.165-.017l9.098-1.747a.906.906 0 0 0 .737-.888V4.167a.906.906 0 0 0-.735-.889l-9.098-1.761A.913.913 0 0 0 11 1.5a.91.905 0 0 0-.015-.001z"/><path style="fill:#f63" d="M11 1.001V20c.055 0 .11-.006.165-.017l9.098-1.747a.906.906 0 0 0 .737-.888V3.667a.906.906 0 0 0-.735-.889l-9.098-1.761A.913.913 0 0 0 11 1z"/><path style="opacity:.2;fill:none;stroke:#000" d="M16.5 4v2.5L13.65 10h2.85v2H19l-2.5 3.5v2"/><path style="fill:none;stroke:#fdfdfd" d="M16.5 4v2l-2.85 3.5h2.85v2H19L16.5 15v2"/><path style="fill:#404041" d="M10.985 1a.91.905 0 0 0-.166.017L1.735 2.778A.91.905 0 0 0 1 3.667v13.68a.91.905 0 0 0 .737.89l9.083 1.746A.91.905 0 0 0 11 20V1.001A.91.905 0 0 0 10.985 1z"/><path style="opacity:.2;fill:#fff" d="M11 1.001v.5c.056 0 .112.005.167.016l9.098 1.761a.906.906 0 0 1 .735.889v-.5a.906.906 0 0 0-.735-.889l-9.098-1.761A.913.913 0 0 0 11 1z"/><path style="opacity:.1;fill:#fff" d="M10.985 1a.91.905 0 0 0-.166.017L1.735 2.778A.91.905 0 0 0 1 3.667v.5a.91.905 0 0 1 .735-.889l9.084-1.761a.91.905 0 0 1 .166-.017.91.905 0 0 1 .015.001v-.5A.91.905 0 0 0 10.985 1z"/></svg>
